X: 31642
T: Paresis
R: reel
M: 4/4
K: Gminor
BAGF DGGB|AFcF dFcF|BAGF DGGA|BdcA BGG2:|
B2g2g2 ga|bga^f gdBG|F2f2f2 fg|afg=e fcAF|
B2g2g2 ga|bga^f g2de|f2fe cAGF|DGGA G2z2||
B2g2g2 ga|bga^f gdBG|CFA,F CFA,F|f=efg afcF|
B2g2g2 ga|bga^f g2de|f=efd cAGF|DGGA G2z2||

